!!!!SEGMENT: pl-wtm--r-1664--004_stefani-jozef--okropnosc-czyli-nowa-lafarge-no-3-tempo-di-valca.krn
!!!cenid: 18xx:2059
!!!COM: Stefani, Józef
!!!COM-rismid: pe30024097
!!!CDT: 1800/04/16-1876/03/19
!!!CNT: Polish
!!!OTL: Okropność czyli Nowa Lafarge – No. 3 – Tempo di valca
!!!PDT:
!!!AGN: Secular
!!!SMS-siglum: PL-Wtm
!!!SMS-shelfmark: R 1664
!!!SMS-shelfwork: 001-004 M
!!!SMS-variant:
!!!SMS-altvar:
!!!NIFC-rismid: 1001114328
!!!OMD: Tempo di Valca
!!!system-decoration: {(s1,s2)}[(s3,s4,s5)][(s6,s7)][(s8)]{(s9,s10)}[(s11)][(s12)]{(s13,s14)}
**kern	**dynam	**kern	**dynam	**kern	**text	**kern	**dynam	**kern	**kern	**dynam	**kern	**kern	**dynam	**kern	**dynam	**kern	**dynam	**kern	**dynam	**kern	**dynam	**kern	**kern	**dynam
*part14	*part14	*part13	*part13	*part12	*part12	*part11	*part11	*part10	*part9	*part9	*part8	*part7	*part7	*part6	*part6	*part5	*part5	*part4	*part4	*part3	*part3	*part2	*part1	*part1
*staff14	*	*staff13	*	*staff12	*staff12	*staff11	*	*staff10	*staff9	*	*staff8	*staff7	*	*staff6	*	*staff5	*	*staff4	*	*staff3	*	*staff2	*staff1	*
*I"C(ontra):Baſsi	*	*I"Violoncelli	*	*I"Szymon	*	*I"Viole	*	*I	*I"Violini	*	*I"Timpani C.F.	*I"Trombone	*	*I"Trombe in C	*	*I"Fagoto	*	*I"Corni in B.	*	*I"Clarinetti in B.	*	*I"Oboe	*I"Flauto	*
*I'cb	*	*I'vlc	*	*I'v h	*	*I'vla	*	*	*I'vl	*	*I'timp	*I'trb	*	*I'tr in C	*	*I'fag	*	*I'cor in B	*	*I'cl in B	*	*I'ob	*I'fl	*
*clefF4	*	*clefF4	*	*clefG2	*	*clefC3	*	*clefG2	*clefG2	*	*clefF4	*clefF4	*	*clefG2	*	*clefF4	*	*clefG2	*	*clefG2	*	*clefG2	*clefG2	*
*ITrd0c0	*	*	*	*	*	*	*	*	*	*	*	*	*	*	*	*	*	*ITrd1c2	*	*ITrd1c2	*	*	*	*
*k[b-e-]	*	*k[b-e-]	*	*k[b-e-]	*	*k[b-e-]	*	*k[b-e-]	*k[b-e-]	*	*k[b-e-]	*k[b-e-]	*	*k[b-e-]	*	*k[b-e-]	*	*k[b-e-]	*	*k[b-e-a-d-]	*	*k[b-e-]	*k[b-e-]	*
*B-:	*	*B-:	*	*B-:	*	*B-:	*	*B-:	*B-:	*	*B-:	*B-:	*	*B-:	*	*B-:	*	*B-:	*	*B-:	*	*B-:	*B-:	*
*M3/4	*	*M3/4	*	*M3/4	*	*M3/4	*	*M3/4	*M3/4	*	*M3/4	*M3/4	*	*M3/4	*	*M3/4	*	*M3/4	*	*M3/4	*	*M3/4	*M3/4	*
*	*	*	*	*	*	*	*	*	*	*	*	*	*	*	*	*	*	*	*	*2\right	*	*	*	*
!LO:TX:t=P:problem:all\right:global	!	!LO:TX:t=P:problem:all\right:global	!	!	!	!	!	!	!	!	!	!	!	!	!	!	!	!	!	!	!	!	!	!
!	!	!	!	!LO:TX:t=P:problem:all\right:global	!	!LO:TX:t=P:problem:all\right:global	!	!LO:TX:t=P:problem:all\right:global	!LO:TX:t=P:problem:all\right:global	!	!	!	!	!	!	!	!	!	!	!	!	!	!	!
!	!	!	!	!	!	!	!	!	!	!	!	!	!	!	!	!	!	!	!	!LO:TX:t=P:problem:all\right:global	!	!LO:TX:t=P:problem:all\right:global	!LO:TX:t=P:problem:all\right:global	!
!	!	!	!	!	!	!	!	!	!	!	!	!LO:TX:t=P:problem:all\right:global	!	!LO:TX:t=P:problem:all\right:global	!	!LO:TX:t=P:problem:all\right:global	!	!LO:TX:t=P:problem:all\right:global	!	!	!	!	!	!
!	!	!	!	!	!	!	!	!	!	!	!	!	!	!	!	!	!	!	!	!LO:TX:t=P:problem:w źródle niepotrzebnie zanotowane znaki przykluczowe (zostawiając klarnet w c dźwięki są o sekundę za wysoko)	!	!	!	!
!	!	!	!	!	!	!	!	!	!	!	!	!	!	!	!	!	!	!	!	!	!	!	!LO:TX:a:Bi:t=No 3:problem:nad całą partyturą:problem	!
!	!	!	!	!	!	!	!	!	!	!	!	!	!	!	!	!	!	!	!	!	!	!	!LO:TX:t=P:problem:w źródle klamry przy Violoncelli i C:Baſsi, Violini (violino primo, violino secundo) oraz Flauto i Oboe; reszta głosów pogrupowana w kodzie	!
!	!	!	!	!	!	!	!	!	!	!	!	!	!	!	!	!	!	!	!	!LO:SIC:v:n=2:s=8dn/	!	!	!	!LO:DY:b:rj
4r	.	4r	.	4r	.	4r	.	(<8B-/L	(<8d/L	f	4ryy	4r	.	(<8B-/L	f	4r	.	4r	.	(<8b-L 8d-/	.	(>8dd\L	(>8dd\L	f
!	!	!	!	!	!	!	!	!LO:TX:a:t=P:w źródle łuk kończy się za kreską taktową:problem	!LO:TX:a:t=P:w źródle łuk kończy się za kreską taktową:problem	!	!	!	!	!LO:TX:a:t=P:w źródle łuk kończy się za kreską taktową:problem	!	!	!	!	!	!	!	!	!	!
.	.	.	.	.	.	.	.	8c/J)	8e-/J)	.	.	.	.	8c/J)	.	.	.	.	.	8ccJ 8e-/)	.	8ee-\J)	8ee-\J)	.
=1	=1	=1	=1	=1	=1	=1	=1	=1	=1	=1	=1	=1	=1	=1	=1	=1	=1	=1	=1	=1	=1	=1	=1	=1
*2\right	*	*2\right	*	*	*	*2\right	*	*	*	*	*	*	*	*	*	*2\right	*	*2\right	*	*	*	*	*	*
*	*	*	*	*	*	*tremolo	*	*	*	*	*	*	*	*	*	*tremolo	*	*	*	*	*	*	*	*
!	!	!LO:TX:a:t=P:w źródle unison oznaczony jako //:problem	!	!	!	!	!	!	!	!	!	!	!	!	!	!	!	!	!	!	!	!	!	!
!LO:TX:t=P:problem:mixed beam	!	!LO:TX:t=P:problem:mixed beam	!	!	!	!	!	!	!	!	!	!	!	!	!	!LO:TX:t=P:problem:mixed beam	!	!	!	!	!	!	!	!
!	!	!	!	!	!	!	!	!	!	!	!	!	!	!	!	!	!	!	!	!LO:SIC:v:n=1:s=4.ddn	!	!	!	!
!	!LO:DY:b:rj	!	!LO:DY:b:rj	!	!	!	!LO:DY:b:rj	!	!	!	!	!	!	!	!	!	!LO:DY:b:rj	!	!	!	!	!	!	!
8BB-/L	f	8BB-/Lyy	fyy	2.r	.	8B-/L	f	4.d/	4.f/	.	2.ryy	4.BB-/	.	(>4.d/	.	8BB-/L	f	4.f 4.F/	.	4.dd- 4.f/	.	4.ff\	4.ff\	.
8B-\J	.	8B-\Jyy	.	.	.	8B-/	.	.	.	.	.	.	.	.	.	8B-\	.	.	.	.	.	.	.	.
!LO:TX:t=P:problem:mixed beam	!	!LO:TX:t=P:problem:mixed beam	!	!	!	!	!	!	!	!	!	!	!	!	!	!	!	!	!	!	!	!	!	!
8BB-/L	.	8BB-/Lyy	.	.	.	8B-/	.	.	.	.	.	.	.	.	.	8BB-/	.	.	.	.	.	.	.	.
!	!	!	!	!	!	!	!	!	!	!	!	!	!	!	!	!	!	!	!	!LO:SIC:v:n=1:s=(<8ddnL	!	!	!	!
8B-\J	.	8B-\Jyy	.	.	.	8B-/	.	(<8d/L	(<8f/L	.	.	8BB-/L	.	8d/L	.	8B-\	.	8fL 8F/	.	(<8dd-L 8f/	.	(>8ff\L	(>8ff\L	.
!LO:TX:t=P:problem:mixed beam	!	!LO:TX:t=P:problem:mixed beam	!	!	!	!	!	!	!	!	!	!	!	!	!	!	!	!	!	!	!	!	!	!
8BB-/L	.	8BB-/Lyy	.	.	.	8B-/	.	8e-/	8g/	.	.	8BB-/	.	8e-/	.	8BB-/	.	8f 8F/	.	8ee- 8g/	.	8gg\	8gg\	.
!	!	!	!	!	!	!	!	!	!	!	!	!	!	!	!	!	!	!	!	!LO:SIC:v:n=2:s=8b-/)	!	!	!	!
8B-\J	.	8B-\Jyy	.	.	.	8B-/J	.	8c/J)	8a/J)	.	.	8BB-/J	.	8c/J)	.	8B-\J	.	8fJ 8F/	.	8ccJ 8a-/)	.	8aa\J)	8aa\J)	.
*	*	*	*	*	*	*Xtremolo	*	*	*	*	*	*	*	*	*	*Xtremolo	*	*	*	*	*	*	*	*
=2	=2	=2	=2	=2	=2	=2	=2	=2	=2	=2	=2	=2	=2	=2	=2	=2	=2	=2	=2	=2	=2	=2	=2	=2
!LO:TX:t=P:problem:mixed beam	!	!LO:TX:t=P:problem:mixed beam	!	!	!	!	!	!	!	!	!	!	!	!	!	!LO:TX:t=P:problem:mixed beam	!	!	!	!	!	!	!	!
!	!	!	!	!	!	!	!	!	!	!	!	!	!	!	!	!	!	!	!	!LO:SIC:v:n=1:s=4.ddn	!	!	!	!
8BB-/L	.	8BB-/Lyy	.	2.r	.	4.B-/	.	4.d/	(<4b-/	.	2.ryy	4.BB-/	.	4.d/	.	(>8BB-/L	.	4.f 4.F/	.	4.dd- 4.b-\	.	4bb-\	(>4bb-\	.
8B-\	.	8B-\yy	.	.	.	.	.	.	.	.	.	.	.	.	.	8B-\)	.	.	.	.	.	.	.	.
8BB-/J	.	8BB-/Jyy	.	.	.	.	.	.	8f/)	.	.	.	.	.	.	8B-'>\J	.	.	.	.	.	8ff\	8ff\)	.
!	!	!	!	!	!	!	!	!	!	!	!	!	!	!	!	!LO:TX:t=P:problem:w źródle brakująca pauza	!	!	!	!	!	!	!	!
8r	.	8ryy	.	.	.	8r	.	8r	8r	.	.	8r	.	8r	.	8ryy	.	8r	.	8r	.	8r	8r	.
!	!	!	!	!	!	!	!	!	!	!	!	!	!	!	!	!	!	!	!	!LO:SIC:v:n=1:s=(>8eenL	!	!	!	!
!	!	!	!	!	!	!	!	!	!	!	!	!	!	!	!	!	!	!	!	!LO:SIC:v:n=2:s=8en\	!	!	!	!
4r	.	4ryy	.	.	.	4r	.	4r	4r	.	.	4r	.	4r	.	8G\L	.	4r	.	(>8dd-L 8d-\	.	(>8b-\L	(>8bb-\L	.
.	.	.	.	.	.	.	.	.	.	.	.	.	.	.	.	8e-\J	.	.	.	8ggJ 8g\)	.	8cc\J)	8ccc\J)	.
=3	=3	=3	=3	=3	=3	=3	=3	=3	=3	=3	=3	=3	=3	=3	=3	=3	=3	=3	=3	=3	=3	=3	=3	=3
2.r	.	2.ryy	.	2.r	.	2.r	.	2.r	2.r	.	2.ryy	2.r	.	2.r	.	4.d\	.	2.r	.	4.ff#X 4.f#X\	.	4dd\	(>4ddd\	.
.	.	.	.	.	.	.	.	.	.	.	.	.	.	.	.	.	.	.	.	.	.	8a/	8aa\)	.
.	.	.	.	.	.	.	.	.	.	.	.	.	.	.	.	8r	.	.	.	8r	.	8r	8r	.
!	!	!	!	!	!	!	!	!	!	!	!	!	!	!	!	!	!	!	!	!LO:SIC:v:n=1:s=(>8eenL	!	!	!	!
!	!	!	!	!	!	!	!	!	!	!	!	!	!	!	!	!	!	!	!	!LO:SIC:v:n=2:s=8en\	!	!	!	!
.	.	.	.	.	.	.	.	.	.	.	.	.	.	.	.	(>8G\L	.	.	.	(>8dd-L 8d-\	.	(>8b-\L	(>8bb-\L	.
.	.	.	.	.	.	.	.	.	.	.	.	.	.	.	.	8e-\J)	.	.	.	8ggJ 8g\	.	8cc\J)	8ccc\J)	.
=4	=4	=4	=4	=4	=4	=4	=4	=4	=4	=4	=4	=4	=4	=4	=4	=4	=4	=4	=4	=4	=4	=4	=4	=4
*	*	*	*	*	*	*	*	*	*	*	*	*	*	*	*	*	*	*^	*	*	*	*	*	*
4r	.	4ryy	.	2.r	.	4r	.	4r	4r	.	2.ryy	4r	.	4r	.	4.d\	.	4r	2ryy	.	4.ff#X 4.f#X\)	.	(>4dd\	(>4ddd\	.
4r	.	4ryy	.	.	.	4r	.	4r	4r	.	.	4r	.	4r	.	.	.	4r	.	.	.	.	8a/)	8aa\)	.
.	.	.	.	.	.	.	.	.	.	.	.	.	.	.	.	8r	.	.	.	.	8r	.	8r	8r	.
!	!LO:DY:b:rj	!	!LO:DY:b:rj	!	!	!	!	!	!	!LO:DY:b:rj	!	!	!	!	!	!	!	!	!	!	!	!	!	!	!
4E-\	f	4E-\yy	fyy	.	.	4g 4c\	.	4gg 4cc\	4ccc 4ee-\	f	.	4E-\	.	4g/	.	4E-\	.	4cc/	4cc\	.	4gg 4ee-\	.	4cc\	4ccc\	.
!!LO:PB:g=original
=5	=5	=5	=5	=5	=5	=5	=5	=5	=5	=5	=5	=5	=5	=5	=5	=5	=5	=5	=5	=5	=5	=5	=5	=5	=5
*	*	*	*	*	*	*^	*	*	*	*	*	*	*	*	*	*	*	*	*	*	*^	*	*	*	*
!	!	!LO:TX:a:t=P:w źródle unison kontunuowany i oznaczony jako //:problem	!	!	!	!	!	!	!	!	!	!	!	!	!	!	!	!	!	!	!	!	!	!	!	!	!
!	!	!	!	!	!	!	!	!	!	!	!	!	!	!	!	!	!	!	!LO:SIC:v:s=4ddn/	!	!	!	!LO:SIC:v:s=4ddn\	!	!	!	!
4F\	.	4F\yy	.	2.r	.	4f/	4d\	.	4ff 4b-\	4bb- 4dd\	.	2.ryy	4F\	.	4b-\	.	4F\	.	4ee-/	4b-\	.	4ff/	4dd-\	.	4b-\	4bb-\	.
4r	.	4ryy	.	.	.	4r	2ryy	.	4r	4r	.	.	4r	.	4r	.	4r	.	4r	2ryy	.	4r	2ryy	.	4r	4r	.
4r	.	4ryy	.	.	.	4r	.	.	4r	4r	.	.	4r	.	4r	.	4r	.	4r	.	.	4r	.	.	4r	4r	.
*	*	*	*	*	*	*v	*v	*	*	*	*	*	*	*	*	*	*	*	*v	*v	*	*	*	*	*	*	*
=6	=6	=6	=6	=6	=6	=6	=6	=6	=6	=6	=6	=6	=6	=6	=6	=6	=6	=6	=6	=6	=6	=6	=6	=6	=6
*	*	*	*	*2\right	*	*	*	*	*	*	*	*	*	*	*	*	*	*	*	*	*	*	*	*	*
4F\	.	4F\yy	.	4r	.	4a 4f 4c\	.	4ee- 4f\	4aa 4cc 4f\	.	2.ryy	4F\	.	4a/	.	4FF/	.	4cc 4f/	.	4ee-/	4cc\	.	4a/	4aa\	.
4r;>	.	4r;>yy	.	4r;>	.	4r;>	.	4r;>	4r;>	.	.	4r;>	.	4r;>	.	4r;>	.	4r;>	.	4r;>	2ryy	.	4r;>	4r;>	.
!	!	!	!	!LO:TX:a:Bi:t=Müller.	!	!	!	!	!	!	!	!	!	!	!	!	!	!	!	!	!	!	!	!	!
!	!	!	!	!	!	!	!	!	!	!LO:DY:b:rj	!	!	!	!	!	!	!	!	!	!	!	!	!	!	!
4r	.	4ryy	.	8d/	Żo-	4r	.	(<8B-/L	(<8d/L	p	.	4r	.	4r	.	4r	.	4r	.	4r	.	.	4r	4r	.
.	.	.	.	8e-/	-na	.	.	8c/J)	8e-/J)	.	.	.	.	.	.	.	.	.	.	.	.	.	.	.	.
*	*	*	*	*	*	*	*	*	*	*	*	*	*	*	*	*	*	*	*	*v	*v	*	*	*	*
=7	=7	=7	=7	=7	=7	=7	=7	=7	=7	=7	=7	=7	=7	=7	=7	=7	=7	=7	=7	=7	=7	=7	=7	=7
*	*	*	*	*	*	*tremolo	*	*	*	*	*	*	*	*	*	*	*	*	*	*	*	*	*	*
!	!	!LO:TX:t=P:problem:mixed beam	!	!	!	!	!	!	!	!	!	!	!	!	!	!	!	!	!	!	!	!	!	!
!	!	!	!LO:DY:b	!	!	!	!LO:DY:b:rj	!	!	!	!	!	!	!	!	!	!	!	!	!	!	!	!	!
4BB-/	.	8BB-/L	p	4.f/	to	8B-/L	p	4.d/	4.f/	.	2.ryy	2.r	.	2.r	.	2.r	.	2.r	.	2.r	.	2.r	2.r	.
.	.	8B-\J	.	.	.	8B-/	.	.	.	.	.	.	.	.	.	.	.	.	.	.	.	.	.	.
*	*	*tremolo	*	*	*	*	*	*	*	*	*	*	*	*	*	*	*	*	*	*	*	*	*	*
4r	.	8B-\L	.	.	.	8B-/	.	.	.	.	.	.	.	.	.	.	.	.	.	.	.	.	.	.
.	.	8B-\	.	8f/	rzecz	8B-/	.	(<8d/L	(<8f/L	.	.	.	.	.	.	.	.	.	.	.	.	.	.	.
4r	.	8B-\	.	8g/	o-	8B-/	.	8e-/	8g/	.	.	.	.	.	.	.	.	.	.	.	.	.	.	.
.	.	8B-\J	.	8a/	-czy-	8B-/J	.	8c/J)	8a/J)	.	.	.	.	.	.	.	.	.	.	.	.	.	.	.
*	*	*Xtremolo	*	*	*	*Xtremolo	*	*	*	*	*	*	*	*	*	*	*	*	*	*	*	*	*	*
=8	=8	=8	=8	=8	=8	=8	=8	=8	=8	=8	=8	=8	=8	=8	=8	=8	=8	=8	=8	=8	=8	=8	=8	=8
!	!	!LO:TX:t=P:problem:mixed beam	!	!	!	!	!	!	!	!	!	!	!	!	!	!	!	!	!	!	!	!	!	!
4.BB-/	.	8BB-/L	.	4b-/	-wi-	8B-/L	.	4.d/	(<4b-/	.	2.ryy	2.r	.	2.r	.	2.r	.	2.r	.	2.r	.	2.r	2.r	.
.	.	8B-\	.	.	.	8B-/	.	.	.	.	.	.	.	.	.	.	.	.	.	.	.	.	.	.
.	.	8B-\J	.	8f/	-sta	8B-/J	.	.	8f/)	.	.	.	.	.	.	.	.	.	.	.	.	.	.	.
8r	.	8r	.	8r	.	8r	.	8r	8r	.	.	.	.	.	.	.	.	.	.	.	.	.	.	.
4BB-/	.	4BB-/	.	8b-\	jest	4g 4B-\	.	4d/	(<4b-/	.	.	.	.	.	.	.	.	.	.	.	.	.	.	.
.	.	.	.	8b-\	to	.	.	.	.	.	.	.	.	.	.	.	.	.	.	.	.	.	.	.
=9	=9	=9	=9	=9	=9	=9	=9	=9	=9	=9	=9	=9	=9	=9	=9	=9	=9	=9	=9	=9	=9	=9	=9	=9
*	*	*	*	*	*	*	*	*	*	*	*	*	*	*	*	*	*	*	*	*^	*	*	*	*
!	!	!LO:TX:a:t=P:w źródle unison kontunuowany i oznaczony jako //:problem	!	!	!	!	!	!	!	!	!	!	!	!	!	!	!	!	!	!	!	!	!	!	!
!	!	!	!	!	!	!	!	!	!	!	!	!	!	!	!	!	!	!	!	!LO:SIC:v:s=4.an/	!	!	!	!	!
!	!	!	!	!	!	!	!	!	!	!	!	!	!	!	!	!	!	!	!	!	!	!	!	!	!LO:DY:b:rj
4C/	.	4C/yy	.	4.a/	dla	4f 4c\	.	4f/	4a/)	.	2.ryy	2.r	.	2.r	.	2.r	.	2.r	.	(>4.a-/	2.re	.	2.r	(>4.aa\	p
4r	.	4ryy	.	.	.	4r	.	4r	4r	.	.	.	.	.	.	.	.	.	.	.	.	.	.	.	.
.	.	.	.	8cc\	mnie	.	.	.	.	.	.	.	.	.	.	.	.	.	.	8cc/L	.	.	.	8ccc\L	.
4C/	.	4C/yy	.	8g/	Ko-	4c\	.	4e-/	4g/	.	.	.	.	.	.	.	.	.	.	8g/	.	.	.	8gg\	.
.	.	.	.	8cc\	-rzyść	.	.	.	.	.	.	.	.	.	.	.	.	.	.	8cc/J)	.	.	.	8ccc\J)	.
!!LO:PB:g=original
*	*	*	*	*	*	*	*	*	*	*	*	*	*	*	*	*	*	*	*	*v	*v	*	*	*	*
=10	=10	=10	=10	=10	=10	=10	=10	=10	=10	=10	=10	=10	=10	=10	=10	=10	=10	=10	=10	=10	=10	=10	=10	=10
!	!	!	!	!	!	!	!	!	!	!	!	!	!	!	!	!	!	!	!	!LO:SIC:v:s=(>4an/	!	!	!	!
4.F\	.	4.F\	.	4cc\	czys-	4.A/	.	4.f/	4.f/	.	2.ryy	2.r	.	2.r	.	2.r	.	8r	.	(>4a-/	.	2.r	(>4ccc\	.
.	.	.	.	.	.	.	.	.	.	.	.	.	.	.	.	.	.	(>16ffLL 16f'>\	.	.	.	.	.	.
.	.	.	.	.	.	.	.	.	.	.	.	.	.	.	.	.	.	16ffJ 16f'>\	.	.	.	.	.	.
.	.	.	.	8f/	-ta	.	.	.	.	.	.	.	.	.	.	.	.	8ffJ 8f'>\)	.	8f/)	.	.	8ff\)	.
8r	.	8r	.	8r	.	8r	.	8r	8r	.	.	.	.	.	.	.	.	8r	.	8r	.	.	8r	.
4r	.	4r	.	8d/	Bo	4r	.	(<8B-/L	(<8d/L	.	.	.	.	.	.	.	.	4r	.	4r	.	.	4r	.
.	.	.	.	8e-/	z nią	.	.	8c/J)	8e-/J)	.	.	.	.	.	.	.	.	.	.	.	.	.	.	.
=11	=11	=11	=11	=11	=11	=11	=11	=11	=11	=11	=11	=11	=11	=11	=11	=11	=11	=11	=11	=11	=11	=11	=11	=11
*	*	*	*	*	*	*tremolo	*	*	*	*	*	*	*	*	*	*	*	*	*	*	*	*	*	*
!	!	!LO:TX:t=P:problem:mixed beam	!	!	!	!	!	!	!	!	!	!	!	!	!	!	!	!	!	!	!	!	!	!
!	!	!	!LO:DY:b:rj	!	!	!	!LO:DY:b:rj	!	!	!	!	!	!	!	!	!	!	!	!	!	!	!	!	!
4BB-/	.	8BB-/L	p	4.f,/	dziś	8B-/L	p	4.d/	4.f/	.	2.ryy	2.r	.	2.r	.	2.r	.	2.r	.	2.r	.	2.r	2.r	.
.	.	8B-\J	.	.	.	8B-/	.	.	.	.	.	.	.	.	.	.	.	.	.	.	.	.	.	.
*	*	*tremolo	*	*	*	*	*	*	*	*	*	*	*	*	*	*	*	*	*	*	*	*	*	*
4r	.	8B-\L	.	.	.	8B-/	.	.	.	.	.	.	.	.	.	.	.	.	.	.	.	.	.	.
.	.	8B-\	.	8f/	bez	8B-/	.	(<8d/L	(<8f/L	.	.	.	.	.	.	.	.	.	.	.	.	.	.	.
4r	.	8B-\	.	8g/	am-	8B-/	.	8e-/	8g/	.	.	.	.	.	.	.	.	.	.	.	.	.	.	.
.	.	8B-\J	.	8a/	-ba-	8B-/J	.	8c/J)	8a/J)	.	.	.	.	.	.	.	.	.	.	.	.	.	.	.
*	*	*Xtremolo	*	*	*	*Xtremolo	*	*	*	*	*	*	*	*	*	*	*	*	*	*	*	*	*	*
=12	=12	=12	=12	=12	=12	=12	=12	=12	=12	=12	=12	=12	=12	=12	=12	=12	=12	=12	=12	=12	=12	=12	=12	=12
!	!	!LO:TX:t=P:problem:mixed beam	!	!	!	!	!	!	!	!	!	!	!	!	!	!	!	!	!	!	!	!	!	!
4.BB-/	.	8BB-/L	.	4b-/	-ra-	4.B-/	.	4.d/	(<4b-/	.	2.ryy	2.r	.	2.r	.	2.r	.	2.r	.	2.r	.	2.r	2.r	.
.	.	8B-\	.	.	.	.	.	.	.	.	.	.	.	.	.	.	.	.	.	.	.	.	.	.
.	.	8B-\J	.	8f/	-su	.	.	.	8f/)	.	.	.	.	.	.	.	.	.	.	.	.	.	.	.
8r	.	8r	.	8r	.	8r	.	8r	8r	.	.	.	.	.	.	.	.	.	.	.	.	.	.	.
!	!	!	!	!	!	!LO:TX:t=P:problem:mixed beam	!	!	!	!	!	!	!	!	!	!	!	!	!	!	!	!	!	!
(<8GG/L	.	(<8GG/L	.	8b-\	Już	(<8G/L	.	(<8d/L	(>8b-\L	.	.	.	.	.	.	.	.	.	.	.	.	.	.	.
8E-/J)	.	8E-/J)	.	8cc\	i	8e-\J	.	8g/J)	8cc\J)	.	.	.	.	.	.	.	.	.	.	.	.	.	.	.
=13	=13	=13	=13	=13	=13	=13	=13	=13	=13	=13	=13	=13	=13	=13	=13	=13	=13	=13	=13	=13	=13	=13	=13	=13
4.D\	.	4.D\	.	4dd\	cor-	4.d\)	.	4.f#X/	(>4dd\	.	2.ryy	2.r	.	2.r	.	2.r	.	2.r	.	2.r	.	2.r	2.r	.
.	.	.	.	8a\	-Kę	.	.	.	8a/)	.	.	.	.	.	.	.	.	.	.	.	.	.	.	.
8r	.	8r	.	8r	.	8r	.	8r	8r	.	.	.	.	.	.	.	.	.	.	.	.	.	.	.
(<8GG/L	.	(<8GG/L	.	8b-\	mam	(>8G\L	.	(<8d/L	(>8b-\L	.	.	.	.	.	.	.	.	.	.	.	.	.	.	.
8E-/J)	.	8E-/J)	.	8cc\	za	8e-\J)	.	8g/J)	8cc\J)	.	.	.	.	.	.	.	.	.	.	.	.	.	.	.
=14	=14	=14	=14	=14	=14	=14	=14	=14	=14	=14	=14	=14	=14	=14	=14	=14	=14	=14	=14	=14	=14	=14	=14	=14
4.D\	.	4.D\	.	4dd\	wcza-	4.d\	.	4.f#X/	(>4dd\	.	2.ryy	2.r	.	2.r	.	4r	.	2.r	.	4r	.	4r	4r	.
.	.	.	.	8a/	-su,	.	.	.	8a/)	.	.	.	.	.	.	4r	.	.	.	4r	.	4r	4r	.
8r	.	8r	.	8r	.	8r	.	8r	8r	.	.	.	.	.	.	.	.	.	.	.	.	.	.	.
!	!	!	!	!	!	!	!	!	!	!	!	!	!	!	!	!	!	!	!	!LO:SIC:v:n=1:s=8eenL	!	!	!	!
!	!	!	!	!	!	!	!	!	!	!	!	!	!	!	!	!	!	!	!	!LO:SIC:v:n=2:s=8en\	!	!	!	!
!	!	!	!	!	!	!	!	!	!	!	!	!	!	!	!	!	!	!	!	!	!	!	!	!LO:HP:b
4r	.	4r	.	4r	.	4r	.	4r	4r	.	.	.	.	.	.	(>8G\L	<	.	.	(>8dd-L 8d-\	<	(>8b-\L	(>8bb-\L	<
!	!	!	!	!	!	!	!	!	!	!	!	!	!	!	!	!	!	!	!	!	!	!LO:TX:a:t=P:w źródle łuk kończy się za kreską taktową:problem	!	!
.	.	.	.	.	.	.	.	.	.	.	.	.	.	.	.	8e-\J)	[[	.	.	8ggJ 8g\	.	8cc\J)	8ccc\J)	.
!!LO:PB:g=original
=15	=15	=15	=15	=15	=15	=15	=15	=15	=15	=15	=15	=15	=15	=15	=15	=15	=15	=15	=15	=15	=15	=15	=15	=15
!	!	!LO:TX:a:t=P:w źródle unison kontunuowany i nieoznaczony:problem	!	!	!	!	!	!	!	!	!	!	!	!	!	!	!	!	!	!	!	!	!	!
2.r	.	2.ryy	.	2.r	.	2.r	.	2.r	2.r	.	2.ryy	4.D\	.	4.a/	.	4.d\	>]	4.dd 4.d/	>]	4.ff#X 4.f#X\)	[ >]	4dd\	(>4ddd\	[ >
.	.	.	.	.	.	.	.	.	.	.	.	.	.	.	.	.	.	.	.	.	.	8a\	8aa\)	]
.	.	.	.	.	.	.	.	.	.	.	.	8r	.	8r	.	8r	.	8r	.	8r	.	8r	8r	.
!	!	!	!	!	!	!	!	!	!	!	!	!	!	!	!	!	!	!	!	!LO:SIC:v:n=1:s=(>8eenL	!	!	!	!
!	!	!	!	!	!	!	!	!	!	!	!	!	!	!	!	!	!	!	!	!LO:SIC:v:n=2:s=8en\	!	!	!	!
.	.	.	.	.	.	.	.	.	.	.	.	4r	.	4r	.	(>8G\L	<	4r	.	(>8dd-L 8d-\	<	(>8b-\L	(>8bb-\L	<
.	.	.	.	.	.	.	.	.	.	.	.	.	.	.	.	8e-\J)	.	.	.	8ggJ 8g\)	.	8cc\J	8ccc\J	[[
=16	=16	=16	=16	=16	=16	=16	=16	=16	=16	=16	=16	=16	=16	=16	=16	=16	=16	=16	=16	=16	=16	=16	=16	=16
2.r	.	2.ryy	.	2.r	.	2.r	.	2.r	2.r	.	2.ryy	4.D\	.	4.a/	.	4.d\	[ >]	4.dd 4.d/	>]	4.ff#X 4.f#X\	[ >]	4.dd\)	4.ddd\)	>]
.	.	.	.	.	.	.	.	.	.	.	.	8r	.	8r	.	8r	.	8r	.	8r	.	8r	8r	.
!	!	!	!	!	!	!	!	!	!	!	!	!	!	!	!	!	!	!	!LO:DY:b:rj	!	!	!	!	!
.	.	.	.	.	.	.	.	.	.	.	.	4r	.	4r	.	4r	.	8.ffL 8.f\	f	4r	.	4r	4r	.
.	.	.	.	.	.	.	.	.	.	.	.	.	.	.	.	.	.	16ffJk 16f\	.	.	.	.	.	.
=17	=17	=17	=17	=17	=17	=17	=17	=17	=17	=17	=17	=17	=17	=17	=17	=17	=17	=17	=17	=17	=17	=17	=17	=17
4r	.	4ryy	.	4r	.	4r	.	4r	4r	.	2.ryy	2.r	.	2.r	.	2.r	.	2.ff 2.f\	.	2.r	.	2.r	2.r	.
4r	.	4ryy	.	4r	.	4r	.	4r	4r	.	.	.	.	.	.	.	.	.	.	.	.	.	.	.
!	!	!	!	!	!	!LO:TX:a:t=P:diminuendolike accent:problem	!	!	!	!	!	!	!	!	!	!	!	!	!	!	!	!	!	!
!LO:TX:a:t=P:diminuendolike accent:problem	!	!LO:TX:a:t=P:diminuendolike accent:problem	!	!	!	!	!	!	!	!	!	!	!	!	!	!	!	!	!	!	!	!	!	!
!	!LO:DY:b:rj	!	!LO:DY:b:rj	!	!	!	!LO:DY:b:rj	!	!	!LO:DY:b:rj	!	!	!	!	!	!	!	!	!	!	!	!	!	!
8.F^<\L	p	8.F^<\Lyy	pyy	8.f/	JaK	8.f^<\L	p	8.A/L	8.f^</L	p	.	.	.	.	.	.	.	.	.	.	.	.	.	.
16F\Jk	.	16F\Jkyy	.	16f/	nie	16f\Jk	.	16A/Jk	16f/Jk	.	.	.	.	.	.	.	.	.	.	.	.	.	.	.
=18	=18	=18	=18	=18	=18	=18	=18	=18	=18	=18	=18	=18	=18	=18	=18	=18	=18	=18	=18	=18	=18	=18	=18	=18
8.E-X\L	.	8.E-X\Lyy	.	8.g-X/	zna-	8.e-X\L	.	8.B-X/L	8.g-X/L	.	2.ryy	2.r	.	2.r	.	2.r	.	2.r	.	2.r	.	2.r	2.r	.
16E-\Jk	.	16E-\Jkyy	.	16g-/	-jąc	16e-\Jk	.	16B-/Jk	16g-/Jk	.	.	.	.	.	.	.	.	.	.	.	.	.	.	.
2AA-X/	.	2AA-X/yy	.	4e-X/	się	2A-X/	.	2c/	4f/	.	.	.	.	.	.	.	.	.	.	.	.	.	.	.
.	.	.	.	4a-X/	z kło-	.	.	.	4a-X/	.	.	.	.	.	.	.	.	.	.	.	.	.	.	.
=19	=19	=19	=19	=19	=19	=19	=19	=19	=19	=19	=19	=19	=19	=19	=19	=19	=19	=19	=19	=19	=19	=19	=19	=19
4.D-X\	.	4.D-X\yy	.	4g-X/	-po-	4.A-X/	.	4.d-X/	(<4g-X/	.	2.ryy	2.r	.	2.r	.	2.r	.	2.r	.	2.r	.	2.r	4r	.
.	.	.	.	8f/	-tem	.	.	.	8f/)	.	.	.	.	.	.	.	.	.	.	.	.	.	4r	.
8r	.	8ryy	.	8r	.	8r	.	8r	8r	.	.	.	.	.	.	.	.	.	.	.	.	.	.	.
8.D-\L	.	8.D-\Lyy	.	8.f/	Oj-	8.A-/L	.	8.d-/L	8.f/L	.	.	.	.	.	.	.	.	.	.	.	.	.	8.ff\L	.
16D-\Jk	.	16D-\Jkyy	.	16f/	-cem	16A-/Jk	.	16d-/Jk	16f/Jk	.	.	.	.	.	.	.	.	.	.	.	.	.	16ff\Jk	.
!!LO:PB:g=original
=20	=20	=20	=20	=20	=20	=20	=20	=20	=20	=20	=20	=20	=20	=20	=20	=20	=20	=20	=20	=20	=20	=20	=20	=20
*	*	*	*	*	*	*	*	*	*	*	*	*	*	*	*	*	*	*^	*	*^	*	*	*	*
4.C/	.	4.C/yy	.	4an/	jes-	(<4F/	.	4.e-X/	(<4a/	.	2.ryy	2.r	.	2.r	.	4r	.	4r	2.re	.	4r	2ryy	.	4r	(>4aa\	.
.	.	.	.	8f/	-tem,	8A/)	.	.	8f/)	.	.	.	.	.	.	4r	.	4r	.	.	4r	.	.	4r	8ff\)	.
8r	.	8ryy	.	8r	.	8r	.	8r	8r	.	.	.	.	.	.	.	.	.	.	.	.	.	.	.	8r	.
!LO:TX:a:t=P:diminuendolike accent:problem	!	!LO:TX:a:t=P:diminuendolike accent:problem	!	!	!	!	!	!	!	!	!	!	!	!	!	!	!	!	!	!	!	!	!	!	!	!
!	!	!	!	!	!	!	!	!	!	!	!	!	!	!	!	!	!	!	!	!	!	!LO:SIC:v:s=8.dn\L	!	!	!	!
8.BB-^<\L	.	8.BB-^<\Lyy	.	8.b-/	a	8.B-/L	.	8.d-X/L	8.b-X/L	.	.	.	.	.	.	8.BB-\L	>	8.b-/L	.	.	8.b-/L	8.d-\L	.	(>8.bb-\L	(>8.bb-\L	.
16G-X\Jk	.	16G-X\Jkyy	.	16en/	do	16B-/Jk	.	16c/Jk	16en/Jk	.	.	.	.	.	.	16G-X\Jk	]	16b-/Jk	.	.	16eX/Jk	16c\Jk	.	16ee-\Jk	16een\Jk	.
=21	=21	=21	=21	=21	=21	=21	=21	=21	=21	=21	=21	=21	=21	=21	=21	=21	=21	=21	=21	=21	=21	=21	=21	=21	=21	=21
4.F\	.	4.F\yy	.	4f/	ce-	4.A/	.	4.c/	4.f/	.	2.ryy	2.r	.	2.r	.	4.F\	.	4.a/	2.re	.	4.f/	4.c\	.	4.ff\)	4.ff\)	.
.	.	.	.	8f/	-lu,	.	.	.	.	.	.	.	.	.	.	.	.	.	.	.	.	.	.	.	.	.
8r	.	8ryy	.	8r	.	8r	.	8r	8r	.	.	.	.	.	.	8r	.	8r	.	.	8r	4.ryy	.	8r	8r	.
4F\	.	4F\yy	.	4f/	Do-	4A/	.	4r	4f/	.	.	.	.	.	.	4r	.	4r	.	.	4r	.	.	4r	4r	.
*	*	*	*	*	*	*	*	*	*	*	*	*	*	*	*	*	*	*v	*v	*	*	*	*	*	*	*
*	*	*	*	*	*	*	*	*	*	*	*	*	*	*	*	*	*	*	*	*v	*v	*	*	*	*
=22	=22	=22	=22	=22	=22	=22	=22	=22	=22	=22	=22	=22	=22	=22	=22	=22	=22	=22	=22	=22	=22	=22	=22	=22
4.E-X\	.	4.E-X\yy	.	4g/	-szed-	4.B-/	.	4.e-X/	4.g/	.	2.ryy	2.r	.	2.r	.	2.r	.	2.r	.	2.r	.	2.r	2.r	.
.	.	.	.	8g/	-łem	.	.	.	.	.	.	.	.	.	.	.	.	.	.	.	.	.	.	.
!LO:TX:t=P:problem:mixed beam	!	!LO:TX:t=P:problem:mixed beam	!	!	!	!	!	!	!	!	!	!	!	!	!	!	!	!	!	!	!	!	!	!
8E-\L	.	8E-\Lyy	.	8g/	nie-	8B-/L	.	8e-/L	8g/L	.	.	.	.	.	.	.	.	.	.	.	.	.	.	.
8F\	.	8F\yy	.	8f/	-wie-	8B-/	.	8d/	8f/	.	.	.	.	.	.	.	.	.	.	.	.	.	.	.
8FF/J	.	8FF/Jyy	.	8a/	-dząc	8cJ 8F/	.	8e-/J	8a/J	.	.	.	.	.	.	.	.	.	.	.	.	.	.	.
=23	=23	=23	=23	=23	=23	=23	=23	=23	=23	=23	=23	=23	=23	=23	=23	=23	=23	=23	=23	=23	=23	=23	=23	=23
*	*	*	*	*	*	*	*	*	*	*	*	*	*	*	*	*	*	*^	*	*	*	*	*	*
4.BB-/	.	4.BB-/yy	.	4cc\	o	4.B- 4.F/	.	4.d/	(>4cc\	.	2.ryy	2.r	.	2.r	.	4r	.	4r	2ryy	.	2.r	.	4r	4r	.
!	!	!	!	!LO:TX:a:Bi:t=/&colon; Edward &colon;/	!	!	!	!	!	!	!	!	!	!	!	!	!	!	!	!	!	!	!	!	!
.	.	.	.	8b-\	tem,	.	.	.	8b-\)	.	.	.	.	.	.	4r	.	4r	.	.	.	.	4r	4r	.
8r	.	8ryy	.	8r	.	8r	.	8r	8r	.	.	.	.	.	.	.	.	.	.	.	.	.	.	.	.
!	!	!	!	!	!	!	!	!	!	!	!	!	!	!	!	!	!	!	!	!LO:DY:b:rj	!	!	!	!	!LO:DY:b:rj
4E-\	.	4E-\yy	.	8g/	Ta-	(<8B-/L	.	(<8e-/L	8g/L	.	.	.	.	.	.	4E-\	.	4ee-/	4cc\	p	.	.	(<8g/L	(>8gg\L	p
.	.	.	.	8cc\	-Kich	8G/J)	.	8g/J)	8cc/J	.	.	.	.	.	.	.	.	.	.	.	.	.	8cc/J)	8ccc\J)	.
=24	=24	=24	=24	=24	=24	=24	=24	=24	=24	=24	=24	=24	=24	=24	=24	=24	=24	=24	=24	=24	=24	=24	=24	=24	=24
4.F\	.	4.F\yy	.	4dd\	Oj-	4.B-/	.	(<4f/	(>4dd\	.	2.ryy	2.r	.	2.r	.	4.F\	.	4.dd/	4.b-\	.	2.r	.	(>4dd\	(>4ddd\	.
.	.	.	.	8b-,<\	-ców	.	.	8d/)	8b-\)	.	.	.	.	.	.	.	.	.	.	.	.	.	8b-\)	8bb-\)	.
8r	.	8ryy	.	8r	.	8r	.	8r	8r	.	.	.	.	.	.	8r	.	8r	4.ryy	.	.	.	8r	8r	.
!	!	!	!	!	!	!	!	!	!	!	!	!	!	!	!	!	!	!	!	!	!	!	!LO:TX:a:t=P:w źródle łuk kończy się za kreską taktową:problem	!	!
!LO:TX:t=P:problem:mixed beam	!	!LO:TX:t=P:problem:mixed beam	!	!	!	!	!	!	!	!	!	!	!	!	!	!	!	!	!	!	!	!	!	!	!
8F\L	.	8F\Lyy	.	8g/	ma-	4c/	.	4e-/	(<8g/L	.	.	.	.	.	.	4r	.	4r	.	.	.	.	(<8g/L	(>8gg\L	.
8FF/J	.	8FF/Jyy	.	8a/	-my	.	.	.	8a/J)	.	.	.	.	.	.	.	.	.	.	.	.	.	8a/J)	8aa\J)	.
!!LO:PB:g=original
*	*	*	*	*	*	*	*	*	*	*	*	*	*	*	*	*	*	*v	*v	*	*	*	*	*	*
=25	=25	=25	=25	=25	=25	=25	=25	=25	=25	=25	=25	=25	=25	=25	=25	=25	=25	=25	=25	=25	=25	=25	=25	=25
*	*	*	*	*	*	*	*	*	*	*	*	*	*	*	*	*	*	*	*	*^	*	*	*	*
4.BB-/	.	4.BB-/yy	.	(>4cc\	wie-	4.B-/	.	(<4e-/	(>4cc\	.	2.ryy	4r	.	4r	.	4r	.	4.f 4.B-/	.	4r	2ryy	.	4r	(>4ccc\	.
.	.	.	.	8b-\)	-lu.	.	.	8d/)	8b-\)	.	.	4r	.	4r	.	4r	.	.	.	4r	.	.	4r	8bb-\)	.
8r	.	8ryy	.	8r	.	8r	.	8r	8r	.	.	.	.	.	.	.	.	8r	.	.	.	.	.	8r	.
!	!	!	!	!	!	!	!	!	!	!	!	!	!	!	!	!	!	!	!	!LO:SIC:v:s=(>4een^</	!	!	!	!	!
!	!	!	!	!	!	!	!	!	!	!	!	!	!LO:DY:b	!	!	!	!LO:DY:b	!	!	!	!	!	!	!	!LO:DY:b:rj
4r	.	4ryy	.	4r	.	4r	.	4r	4r	.	.	4En\	sf	4g/	.	(>4en\	sf	4r	.	(>4dd-X^</	4b-\	.	(>4gg\	(>4gg^<\	sf
=26	=26	=26	=26	=26	=26	=26	=26	=26	=26	=26	=26	=26	=26	=26	=26	=26	=26	=26	=26	=26	=26	=26	=26	=26	=26
4r	.	4ryy	.	2.r	.	4r	.	4r	4r	.	2.ryy	4F\	.	4f/	.	4f\)	.	4r	.	4ddn 4b-\)	4ryy	.	8ff\)	4ff\)	.
.	.	.	.	.	.	.	.	.	.	.	.	.	.	.	.	.	.	.	.	.	.	.	8r	.	.
4r	.	4ryy	.	.	.	4r	.	4r	4r	.	.	4r	.	4r	.	4r	.	4r	.	4r	4ryy	.	4r	4r	.
!	!LO:DY:b:rj	!	!LO:DY:b:rj	!	!	!	!	!	!	!LO:DY:b:rj	!	!	!	!	!LO:DY:b:rj	!	!	!	!LO:DY:b:rj	!	!	!LO:DY:b:rj	!	!	!LO:DY:b:rj
4F\	f	4F\yy	fyy	.	.	4f 4A\	.	4ee- 4f/	4aa 4cc\	f	.	4F\	.	4a/	f	4F\	.	4cc 4f/	f	4ee-/	4cc\	f	4aa\	4aa\	f
=27	=27	=27	=27	=27	=27	=27	=27	=27	=27	=27	=27	=27	=27	=27	=27	=27	=27	=27	=27	=27	=27	=27	=27	=27	=27
!	!	!	!	!	!	!	!	!	!	!	!	!	!	!	!	!	!	!	!	!LO:SIC:v:s=4ddn/	!	!	!	!	!
4BB-/	.	4BB-/yy	.	2.r	.	4f 4B-\	.	4dd 4f/	4bb- 4dd\	.	2.ryy	4BB-/	.	4b-/	.	4B-\	.	4b- 4d/	.	4dd-/	4b-\	.	4bb-\	4bb-\	.
4r	.	4ryy	.	.	.	4r	.	4r	4r	.	.	4r	.	4r	.	4r	.	4r	.	4r	2ryy	.	4r	4r	.
4r	.	4ryy	.	.	.	4r	.	4r	4r	.	.	4r	.	4r	.	4r	.	4r	.	4r	.	.	4r	4r	.
*	*	*	*	*	*	*	*	*	*	*	*	*	*	*	*	*	*	*	*	*v	*v	*	*	*	*
==	==	==	==	==	==	==	==	==	==	==	==	==	==	==	==	==	==	==	==	==	==	==	==	==
*-	*-	*-	*-	*-	*-	*-	*-	*-	*-	*-	*-	*-	*-	*-	*-	*-	*-	*-	*-	*-	*-	*-	*-	*-
!!title: @{OTL};
!!!RDF**kern: > = above
!!!RDF**kern: < = below
!!!RDF**kern: | = vertical stroke
!!!RDF**kern: N = linked
!!!RDF**kern: i = editorial accidental
!!!EED: Wojciech Jakubiak-Danek
!!!EST: 2021-05-09
!!!URL-scan: http://repozytorium.nifc.pl/skany/pl-wtm-nut--r1664
!!!ONB-nifc: UWAGA: skany 0017-0019
!!!ENC: Tomasz Grochalski
!!!END: 2021-04-30
